plasma/desktoptheme/Materia-Color/icons/korgac.svg

<svg xmlns="http://www.w3.org/2000/svg" width="32" height="32" version="1.1">
 <defs id="materia">
  <style id="current-color-scheme" type="text/css">
   .ColorScheme-Background {color:#181818; } .ColorScheme-ButtonBackground { color:#343434; } .ColorScheme-Highlight { color:#4285f4; } .ColorScheme-Text { color:#dfdfdf; } .ColorScheme-ViewBackground { color:#242424; } .ColorScheme-NegativeText { color:#f44336; } .ColorScheme-PositiveText { color:#4caf50; } .ColorScheme-NeutralText { color:#ff9800; }
  </style>
 </defs>
 <g id="22-22-korgac">
  <rect style="opacity:0.001" width="22" height="22" x="32" y="10"/>
  <path style="fill:currentColor" class="ColorScheme-Text" d="m 42.998047,11.996094 c -4.970563,0 -9,4.029437 -9,9 0,4.970563 4.029437,9 9,9 4.970563,0 9,-4.029437 9,-9 0,-4.970563 -4.029437,-9 -9,-9 z m 0,3 c 3.313708,0 6,2.686292 6,6 0,3.313708 -2.686292,6 -6,6 -3.313708,0 -6,-2.686292 -6,-6 0,-3.313708 2.686292,-6 6,-6 z M 42,16 v 4 2 h 2 4 v -2 h -4 v -4 z"/>
 </g>
 <g id="korgac">
  <rect style="opacity:0.001" width="32" height="32" x="0" y="0"/>
  <path style="fill:currentColor" class="ColorScheme-Text" d="M 15.5 3 C 8.5964401 3 3 8.5964401 3 15.5 C 3 22.40356 8.5964401 28 15.5 28 C 22.40356 28 28 22.40356 28 15.5 C 28 8.5964401 22.40356 3 15.5 3 z M 15.5 7 C 20.19442 7 24 10.80558 24 15.5 C 24 20.194419 20.19442 24 15.5 24 C 10.805581 24 7 20.194419 7 15.5 C 7 10.80558 10.805581 7 15.5 7 z M 14 9 L 14 14 L 14 17 L 17 17 L 22 17 L 22 14 L 17 14 L 17 9 L 14 9 z"/>
 </g>
</svg>

<?xml version="1.0" encoding="UTF-8"?>
<svg width="32" height="32" version="1.1" xmlns="http://www.w3.org/2000/svg">
 <defs id="materia">
  <style id="current-color-scheme" type="text/css">.ColorScheme-Background {color:#181818; } .ColorScheme-ButtonBackground { color:#343434; } .ColorScheme-Highlight { color:#4285f4; } .ColorScheme-Text { color:#dfdfdf; } .ColorScheme-ViewBackground { color:#242424; } .ColorScheme-NegativeText { color:#f44336; } .ColorScheme-PositiveText { color:#4caf50; } .ColorScheme-NeutralText { color:#ff9800; }</style>
 </defs>
 <g id="22-22-korgac">
  <rect x="32" y="10" width="22" height="22" opacity=".001"/>
  <path class="ColorScheme-Text" d="m42.998 11.996c-4.9706 0-9 4.0294-9 9s4.0294 9 9 9 9-4.0294 9-9-4.0294-9-9-9zm0 3c3.3137 0 6 2.6863 6 6s-2.6863 6-6 6-6-2.6863-6-6 2.6863-6 6-6zm-0.99805 1.0039v6h6v-2h-4v-4z" fill="currentColor"/>
 </g>
 <g id="korgac">
  <rect width="32" height="32" opacity=".001"/>
  <path class="ColorScheme-Text" d="m15.5 3c-6.9036 0-12.5 5.5964-12.5 12.5 0 6.9036 5.5964 12.5 12.5 12.5 6.9036 0 12.5-5.5964 12.5-12.5 0-6.9036-5.5964-12.5-12.5-12.5zm0 4c4.6944 0 8.5 3.8056 8.5 8.5 0 4.6944-3.8056 8.5-8.5 8.5-4.6944 0-8.5-3.8056-8.5-8.5 0-4.6944 3.8056-8.5 8.5-8.5zm-1.5 2v5 3h3 5v-3h-5v-5h-3z" fill="currentColor"/>
 </g>
</svg>
